!!!!SEGMENT: pl-wtm--iii-41-370_nidecki-tomasz--marsz-zalobny.krn
!!!cenid: 18xx:4386
!!!COM: Nidecki, Tomasz Napoleon
!!!COM-rismID: 30097141
!!!CDT: 1807/01/02-1852/06/05
!!!CNT: Polish
!!!OTL: Marsz żałobny
!!!PDT:
!!!AGN:
!!!SMS-siglum: PL-Wtm
!!!SMS-shelfmark: III.41.370
!!!SMS-shelfwork: W
!!!SMS-variant:
!!!SMS-altvar:
!!!NIFC-rismSourceID: 1001140583
!!!NIFC-rismChildID: 1001140583
!!!NIFC-islandoraID: pl-wtm:18458
!!!URL-pdf-islandora: https://repozytorium.nifc.pl/islandora/object/pl-wtm:18458/datastream/PDF/view
!!!URL-scan: https://polish.musicsources.pl/pl/lokalizacje/galeria/druki-muzyczne/17292/2 @EN{Scan on Polish Music Sources Website} @PL{Skany w portalu Dziedzictwo Muzyki Polskiej w otwartym dostępie}
!!!ONB-nifc:
!!!AIN: 1 piano
!!!key:
**kern	**kern	**dynam
*part1	*part1	*part1
*staff2	*staff1	*
*	*I"FORTEPIAN	*
*	*I'pf	*
*	*Ipiano	*
*	*ICklav	*
*	*IGsolo	*
*clefF4	*clefG2	*
*k[]	*k[]	*
*a:	*a:	*
*M4/4	*M4/4	*
*met(c)	*met(c)	*
*>[A,A1,A,A2,B,C,A,A1,A,A2,B]	*>[A,A1,A,A2,B,C,A,A1,A,A2,B]	*
=1	=1	=1
*>A	*>A	*
!	!LO:TX:a:B:t=Wolno i poważnie.	!
2AA\ 2A	2c/ 2e 2a	.
2BB\ 2B	2d/ 2e 2g#X	.
=2	=2	=2
4C\ 4c	4d/ 4a	.
4GG#X\ 4G#X	4d/ 4e 4b	.
4AA\ 4A	8e/L 8cc	.
.	16e/L	.
.	16e/JJ	.
4r	8e/L	.
.	8e/J	.
=3	=3	=3
2C\ 2c	2e/ 2g 2cc	<
2D\ 2d	2f/ 2g 2b	.
=4	=4	=4
4E\ 4e	4g/ 4cc	.
4BB\ 4B	4f/ 4g 4dd	.
4C\ 4c	8e/L 8g 8ee	.
.	16g/L	.
.	16g/JJ	.
4r	8g/L	.
.	8g/J	[
=5	=5	=5
4C\ 4c	2e/ 2g 2ee	.
4C/	.	.
4BB\ 4B	2e/ 2g#X 2dd	.
4BB/	.	.
!!LO:LB:g=original
=6	=6	=6
4AA\ 4A	2e/ 2a 2cc	mf
4AA/	.	.
2DD/ 2D	(8f\L 8b-X	.
.	8dd\J	.
.	8cc\L	.
.	8b-\J)	.
=7	=7	=7
2EE/ 2E	4c/ 4e 4a	.
.	8.c/L 8.e 8.a	.
.	16c/Jk 16e 16a	.
4EE/ 4E	8d/L 8e 8g#X	.
.	8a/J	.
4EE/ 4E	8d/L 8e 8b	.
.	8g#/J	.
=8	=8	=8
*>A1	*>A1	*
4AA\ 4A	4c/ 4e 4a	.
8.AA\L 8.A	8.c/L 8.e 8.a	.
16AA\Jk 16A	16c/Jk 16e 16a	.
4AA\ 4A	8c/L 8e 8a	.
.	16e/L	.
.	16e/JJ	.
4r	8e/L	.
.	8e/J	.
=9:|!	=9:|!	=9:|!
*>A2	*>A2	*
4AA\ 4A	4c/ 4e 4a	.
8.AA\L 8.A	8.c/L 8.e 8.a	.
16AA\Jk 16A	16c/Jk 16e 16a	.
4AA\ 4A	4c/ 4e 4a	.
4r	(8e/L 8g#X	.
.	8f#X/J 8a	.
!!LO:LB:g=original
=10||	=10||	=10||
*>B	*>B	*
4EE/ 4E	2.g#X/) 2.b	.
8DD#X/L 8D#X	.	.
8EE/J 8E	.	.
2FF/ 2F	.	.
.	8e-X/L 8cc	.
.	8a/J	.
=11	=11	=11
8EE/L 8E	2e/ 2g#X 2b	.
16EE/L 16E	.	.
16EE/JJ 16E	.	.
8EE/L 8E	.	.
8EE/J 8E	.	.
4EE/ 4E	4r	.
4r	(8e/L 8g#	.
.	8f#X/J 8a	.
=12	=12	=12
4EE/ 4E	2.g#X/) 2.b	.
8DD#X/L 8D#X	.	.
8EE/J 8E	.	.
2FF/ 2F	.	.
.	8e-X/L 8cc	.
.	8a/J	.
=13	=13	=13
2EE/ 2E	8g#X/L 8b	.
.	16e/L	.
.	16e/JJ	.
.	8e/L	.
.	8e/J	.
2r	8e/L	.
.	8e/J	.
.	8e/L	.
.	8e/J	.
!!LO:PB:g=original
=14	=14	=14
4C\ 4c	2e/ 2g 2ee	f
4C/	.	.
4BB\ 4B	2e/ 2g#X 2dd	.
4BB/	.	.
=15	=15	=15
4AA\ 4A	2e/ 2a 2cc	.
4AA/	.	.
2DD/ 2D	8f\L 8b-X	mf
.	8dd\J	.
.	8cc\L	.
.	8b-\J	.
=16	=16	=16
2EE/ 2E	4c/ 4e 4a	.
.	8.c/L 8.e 8.a	.
.	16c/Jk 16e 16a	.
4EE/ 4E	8d/L 8e 8g#X	.
.	8a/J	.
4EE/ 4E	8b/L	.
.	8g#/J	.
=17	=17	=17
4AA\ 4A	4c/ 4e 4a	.
8.AA\L 8.A	8.c/L 8.e 8.a	.
16AA\Jk 16A	16c/Jk 16e 16a	.
4AA\ 4A	4c/ 4e 4a	.
!	!LO:TX:b:t=Koniec.	!
4r	4r	.
!!LO:LB:g=original
==18	==18	==18
*>C	*>C	*
*k[f#c#g#]	*k[f#c#g#]	*
!	!LO:TX:a:t=Trio.	!
4AA/	2cc#\	.
4E\ 4A 4c#	.	.
4EE/	(8b\L	.
.	8dd\J	.
4E\ 4G# 4d	8cc#\L	.
.	8b\J)	.
=19	=19	=19
4AA/	[2a/	.
8.E\L 8.A 8.c#	.	.
16E\Jk 16A 16c#	.	.
2E\ 2A 2c#	(>8a/L]	.
.	16b/L	.
.	16a/JJ	.
.	8g#/L	.
.	8a/J)	.
=20	=20	=20
4FFn/ 4Fn	4d#X^/ 4a 4b	.
4EE/ 4E	8.e/L 8.g# 8.b	.
.	16e/Jk 16g# 16b	.
4FF/ 4F	4d#^/ 4a 4b	.
4EE/ 4E	8.e/L 8.g# 8.b	.
.	16e/Jk 16g# 16b	.
=21	=21	=21
(4Fn\	(<4d#X/ 4a 4b	.
8.E\L	8.e/L	.
16E\Jk	16e/Jk	.
8d#X\L	8f#/L	.
8dn\J	8g#/J	.
8c#\L	8a/L	.
8B\J)	8b/J	.
!!LO:LB:g=original
=22	=22	=22
4AA/	2cc#\)	.
4E\ 4A 4c#	.	.
4CC#/	(8fn\L 8b	.
.	8dd\J	.
4Fn\ 4B	8cc#\L	.
.	8b\J)	.
=23	=23	=23
4FF#/	[4a/	.
4C#\ 4F# 4A	8a/L]	.
.	8g#/J	.
4DD/	8d/L 8f#	.
.	8e/J 8g#	.
4D\ 4A	8f#/L 8a	.
.	8b/J	.
=24	=24	=24
4EE/ 4E	4e/ 4cc#	.
4E\ 4A	8.f#/L 8.dd	.
.	16e/Jk 16cc#	.
4EE/	4d/ 4b	.
4E\ 4G#	8.e/L 8.cc#	.
.	16d/Jk 16b	.
=25	=25	=25
4AA\ 4A	4c#/ 4a	.
8.AA\L 8.E 8.A	8.c#/L 8.a	.
16AA\Jk 16E 16A	16c#/Jk 16a	.
4AA\ 4E 4A	8c#/L 8a	.
.	16e/L	.
.	16e/JJ	.
4r	8e/L	.
.	8e/J	.
!!LO:LB:g=original
=26	=26	=26
4AA/	2cc#\	.
4E\ 4A 4c#	.	.
4EE/	(8b\L	.
.	8dd\J	.
4E\ 4G# 4d	8cc#\L	.
.	8b\J)	.
=27	=27	=27
4AA/	[2a/	.
8.E\L 8.A 8.c#	.	.
16E\Jk 16A 16c#	.	.
2E\ 2A 2c#	(>8a/L]	.
.	16b/L	.
.	16a/JJ	.
.	8g#/L	.
.	8a/J)	.
=28	=28	=28
4FFn/ 4Fn	4d#X^/ 4a 4b	.
4EE/ 4E	8.e/L 8.g# 8.b	.
.	16e/Jk 16g# 16b	.
4FF/ 4F	4d#^/ 4a 4b	.
4EE/ 4E	8.e/L 8.g# 8.b	.
.	16e/Jk 16g# 16b	.
=29	=29	=29
4FFn/ 4Fn	(<4d#X/ 4a 4b	.
(8.E\L	8.e/L	.
16E\Jk	16e/Jk	.
8d#X\L	8f#/L	.
8dn\J	8g#/J	.
8c#\L	8a/L	.
8B\J)	8b/J	.
!!LO:LB:g=original
=30	=30	=30
4AA/	2cc#\)	.
4E\ 4A 4c#	.	.
4CC#/	(8fn\L 8b	.
.	8dd\J	.
4Fn\ 4B	8cc#\L	.
.	8b\J)	.
=31	=31	=31
4FF#/	[4a/	.
4C#\ 4F# 4A	8a/L]	.
.	8g#/J	.
4DD/	8d/L 8f#	.
.	8e/J 8g#	.
4D\ 4A	8f#/L 8a	.
.	8b/J	.
=32	=32	=32
4EE/ 4E	4e/ 4cc#	.
4E\ 4A	8.f#/L 8.dd	.
.	16e/Jk 16cc#	.
4EE/	4d/ 4b	.
4E\ 4G#	8.e/L 8.cc#	.
.	16d/Jk 16b	.
=33	=33	=33
4AA\ 4A	4c#/ 4a	.
8.AA\L 8.E 8.A	8.c#/L 8.a	.
16AA\Jk 16E 16A	16c#/Jk 16a	.
4AA\ 4E 4A	8c#/L 8a	.
.	16e/L	.
.	16e/JJ	.
!LO:TX:b:t=Marsz z powtórzeniem do końca.	!	!
4r	8e/L	.
.	8e/J	.
==	==	==
*-	*-	*-
!!!system-decoration: {(s1,s2)}
!!!RDF**kern: < = below
!!!RDF**kern: > = above
!!!ENC: Filip Voros
!!!END: 2023-07-10
!!!ENC: Marta Chmielewska
!!!END: 2023-07-17
!!!YEC: Copyright 2022 Narodowy Instytut Fryderyka Chopina (https://polishscores.org)
!!!YEM: License CC-BY-4.0 (https://creativecommons.org/licenses/by/4.0)
